!!!!SEGMENT: d-b--slg-bohn-ms-mus-111--001-014_jarzebski-adam--canzoni-e-concerti-14-nova-casa.krn
!!!cenid: 16xx:1787
!!!COM: Jarzębski, Adam
!!!COM-rismID: pe30017782
!!!CDT: 1590-1648
!!!CNT: Polish
!!!GTL: Canzoni e Concerti
!!!OTL: 14. Nova Casa
!!!OMV: 014
!!!PDT: 1627
!!!AGN:
!!!YEC: Copyright 2022 Narodowy Instytut Fryderyka Chopina (https://polishscores.org)
!!!YEM: License CC-BY-4.0 (https://creativecommons.org/licenses/by/4.0)
!!!SMS-siglum: D-B
!!!SMS-shelfmark: Slg Bohn Ms.mus. 111
!!!SMS-shelfwork: 001-014 G
!!!SMS-variant:
!!!SMS-altvar:
!!!NIFC-rismSourceID: 1001062014
!!!NIFC-rismChildID: 1001062014
!!!NIFC-islandoraID: none
!!!URL-pdf-islandora:
!!!URL-scan: https://digital.staatsbibliothek-berlin.de/werkansicht/?PPN=PPN1049147219 @EN{Scan on Staatsbibliothek zu Berlin Website} @PL{Skany w portalu Staatsbibliothek zu Berlin}
!!!IIIF:
!!!ONB-nifc: UWAGA: Prima vox: s. 27, Seconda vox: s. 87, Bassus sive Vox Tertia: s. 126, Basso continuo: s. 174. Uwaga: proszę wpisywać partie tylko występujące w danym koncercie i nazywać partie wg określeń podawanych przy danym utworze. Kody instr. dla humdrumowców podane zostaną na forum.
!!!AIN: 2 empty 1 soprn 1 vox
!!!key: G:mix
**kern	**fba	**kern	**kern	**kern
*group2	*	*group1	*group1	*group1
*part4	*	*part3	*part2	*part1
*staff4	*	*staff3	*staff2	*staff1
*Iempty	*	*Iempty	*Isoprn	*Ivox
*I"Baſso Continúo.	*	*I"Tertia Vox.	*I"Soprani.	*I"Canto
*mI"Basso continuo	*	*mI"Terzo voce	*mI"Soprano II	*mI"Soprano I
*I'bc	*	*I'V 3	*I'S 2	*I'S 1
*clefG2	*	*clefG2	*clefG2	*clefG2
*k[]	*	*k[]	*k[]	*k[]
*G:mix	*	*G:mix	*G:mix	*G:mix
*M2/2	*	*M2/2	*M2/2	*M2/2
*met(C|)	*	*met(C|)	*met(C|)	*met(C|)
*met(c|)	*	*met(c|)	*met(c|)	*met(c|)
=1-	=1-	=1-	=1-	=1-
!!LO:TX:t=P:problem:nie wprowadzamy kodów instrumentów, nie zostały jeszcze ustalone [konsultacja z E.Z.]
!!LO:TX:t=P:problem:4,8,16\right, 2\middle:global
2dd\	.	00r	1r	2dd\
4dd\	.	.	.	4dd\
4dd\	.	.	.	4dd\
=2-	=2-	=2-	=2-	=2-
2g/	.	.	2g/	4b/
.	.	.	.	4g/
!	!	!	!	!LO:TX:t=P:problem:kreska pseudotaktowa
4g/	.	.	4g/	[2gg\
!LO:TX:t=P:problem:kreska pseudotaktowa	!	!	!	!
4g/	.	.	4g/	.
=3-	=3-	=3-	=3-	=3-
!LO:MO:mod=*clefF4	!	!	!	!
*clefC3	*	*	*	*
4e\	.	.	4e/	8gg\L]
.	.	.	.	8ff\
4c/	.	.	4c/	8ee\
.	.	.	.	8dd\J
2c/	.	.	[2cc\	[2ee\
=4-	=4-	=4-	=4-	=4-
!LO:TX:t=P:problem:kreska pseudotaktowa	!	!	!	!
1c	.	.	8cc/L]	8ee\L]
.	.	.	8b/	8dd\
.	.	.	8a/	8cc\
.	.	.	8g/J	8b\J
!	!	!	!	!LO:TX:t=P:problem:kreska pseudotaktowa
.	.	.	4.a/	[2cc\
.	.	.	8g/	.
=5-	=5-	=5-	=5-	=5-
1d	.	4r	4f#X/	8cc\L]
.	.	.	.	8dd\
.	.	4dd\	2g/	8b\
.	.	.	.	8cc\J
!	!	!	!	!LO:TX:t=P:problem:kreska pseudotaktowa
.	.	4dd\	.	2a/
!	!	!	!LO:TX:t=P:problem:# above	!
.	.	4dd\	4f#X/	.
=6-	=6-	=6-	=6-	=6-
!LO:TX:t=P:problem:kreska pseudotaktowa	!	!	!	!
1G	.	4b/	2g/	4r
.	.	4g/	.	4g/
!	!	!LO:TX:t=P:problem:kreska pseudotaktowa	!LO:TX:t=P:problem:kreska pseudotaktowa	!
.	.	[2gg\	2r	4g/
.	.	.	.	4g/
=7-	=7-	=7-	=7-	=7-
0c	.	8gg\L]	4r	4e/
.	.	8ff\	.	.
.	.	8ee\	4gg\	4c/
.	.	8dd\J	.	.
!	!	!	!	!LO:TX:t=P:problem:kreska pseudotaktowa
.	.	[2ee\	4gg\	[2cc\
.	.	.	4gg\	.
=8-	=8-	=8-	=8-	=8-
.	.	8ee\L]	[2ee\	8cc/L]
.	.	8dd\	.	8b/
.	.	8cc\	.	8a/
.	.	8b\J	.	8g/J
.	.	[2cc\	8ee\L]	4.a/
.	.	.	8dd\	.
.	.	.	8cc\	.
!	!	!	!LO:TX:t=P:problem:kreska pseudotaktowa	!
.	.	.	8b\J	8g/
*	*	*	*custos:a	*custos:f
!	!	!	!LO:LB:g=original	!LO:LB:g=original
=9-	=9-	=9-	=9-	=9-
1d	.	8cc\L]	4a/	4f#X/
.	.	8dd\	.	.
.	.	8b\	4dd\	2g/
.	.	8cc\J	.	.
!	!	!LO:TX:t=P:problem:kreska pseudotaktowa	!	!
.	.	2a/	4dd\	.
!	!	!	!	!LO:TX:t=P:problem:# above
.	.	.	4dd\	4f#X/
=10-	=10-	=10-	=10-	=10-
!LO:TX:t=P:problem:kreska pseudotaktowa	!	!	!	!
1G	.	4r	4.b/	2g/
.	.	4g/	.	.
.	.	.	8g/	.
.	.	4g/	[2gg\	2r
.	.	4g/	.	.
=11-	=11-	=11-	=11-	=11-
0c	.	4e/	8gg\L]	4r
.	.	.	8ff\	.
.	.	4c/	8ee\	4gg\
.	.	.	8dd\J	.
.	.	[2cc\	[2ee\	4gg\
.	.	.	.	4gg\
*	*	*custos:cc	*	*
!	!	!LO:LB:g=original	!	!
=12-	=12-	=12-	=12-	=12-
.	.	8cc/L]	8ee\L]	[2ee\
.	.	8b/	8dd\	.
.	.	8a/	8cc\	.
.	.	8g/J	8b\J	.
.	.	4.a/	[2cc\	8ee\L]
.	.	.	.	8dd\
.	.	.	.	8cc\
!	!	!	!	!LO:TX:t=P:problem:kreska pseudotaktowa
.	.	8g/	.	8b\J
=13-	=13-	=13-	=13-	=13-
1d	.	4f#X/	8cc\L]	4a/
.	.	.	8dd\	.
.	.	2g/	8b\	4dd\
.	.	.	8cc\J	.
.	.	.	2a/	4dd\
!	!	!LO:TX:t=P:problem:# above	!	!LO:TX:t=P:problem:kreska pseudotaktowa
.	.	4f#X/	.	4dd\
=14-	=14-	=14-	=14-	=14-
2.G/	.	2g/	2b/	4b/
.	.	.	.	4g/
.	.	4r	4r	4r
!LO:TX:t=P:problem:kreska pseudotaktowa	!	!	!	!
4G/	.	4g/	4b/	4gg\
*custos:d	*	*	*	*
!LO:LB:g=original	!	!	!	!
=15-	=15-	=15-	=15-	=15-
*M3/2	*	*M3/2	*M3/2	*M3/2
*met(3)	*	*met(3)	*met(3)	*met(3)
2.d\	.	2.d/	2.dd\	2.ff\
4d\	.	4d/	4dd\	4ff\
2d\	.	2d/	2dd\	2ff\
=16-	=16-	=16-	=16-	=16-
1A	.	1a	1cc#X	1ee
!LO:TX:t=P:problem:kreska pseudotaktowa	!	!	!	!
2A/	.	2a/	2cc#\	2ee\
=17-	=17-	=17-	=17-	=17-
1d	.	1d	1dd	1dd
2e\	.	2b/	2gg\	2r
!	!	!	!LO:LB:g=original	!
=18-	=18-	=18-	=18-	=18-
2.d\	.	2.dd\	2.ff\	2.d/
4d\	.	4dd\	4ff\	4d/
!LO:TX:t=P:problem:kreska pseudotaktowa	!	!	!	!
2d\	.	2dd\	2ff\	2d/
*	*	*	*	*custos:a
!	!	!	!	!LO:LB:g=original
=19-	=19-	=19-	=19-	=19-
1A	.	1cc#X	1ee	1a
2A/	.	2cc#\	2ee\	2a/
=20-	=20-	=20-	=20-	=20-
1d	.	1dd	1dd	1d
!LO:TX:t=P:problem:kreska pseudotaktowa	!	!	!	!
2e\	.	2gg\	2r	2b/
*	*	*custos:ff	*	*
!	!	!LO:LB:g=original	!	!
=21-	=21-	=21-	=21-	=21-
2.d\	.	2.ff\	2.d/	2.dd\
4d\	.	4ff\	4d/	4dd\
2d\	.	2ff\	2d/	2dd\
=22-	=22-	=22-	=22-	=22-
1A	.	1ee	1a	1cc#X
!LO:TX:t=P:problem:kreska pseudotaktowa	!	!	!	!
2A/	.	2ee\	2a/	2cc#\
*clefF4	*	*	*	*
=23-	=23-	=23-	=23-	=23-
*M2/2	*	*M2/2	*M2/2	*M2/2
*met(C|)	*	*met(C|)	*met(C|)	*met(C|)
*met(c|)	*	*met(c|)	*met(c|)	*met(c|)
0D	.	1dd	1d	2dd\
.	.	.	.	4r
.	.	.	.	4dd\
=24-	=24-	=24-	=24-	=24-
.	.	2r	4r	4a/
.	.	.	4dd\	4b-X/
.	.	4r	4a/	4f#X/
!	!	!	!LO:TX:t=P:problem:kreska pseudotaktowa	!LO:TX:t=P:problem:kreska pseudotaktowa
.	.	4dd\	4b-X/	4g/
=25-	=25-	=25-	=25-	=25-
!LO:TX:t=P:problem:kreska pseudotaktowa	!	!	!	!
1D	.	4a/	4f#X/	8r
.	.	.	.	8dd\L
.	.	4b-X/	4g/	8dd\
.	.	.	.	16ccny\L
!	!	!	!	!LO:TX:t=P:problem:♭ above
.	.	.	.	16b-X\JJ
.	.	4f#X/	8r	8a/L
.	.	.	8dd\L	8d/J
!	!	!LO:TX:t=P:problem:kreska pseudotaktowa	!	!
.	.	4g/	8dd\	8b-X/L
.	.	.	16ccny\L	16a/L
!	!	!	!LO:TX:t=P:problem:kreska pseudotaktowa	!
!	!	!	!LO:TX:t=P:problem:♭ above	!LO:TX:t=P:problem:kreska pseudotaktowa
.	.	.	16b-X\JJ	16g/JJ
*custos:D	*	*	*custos:a	*custos:f
!LO:LB:g=original	!	!	!LO:LB:g=original	!LO:LB:g=original
=26-	=26-	=26-	=26-	=26-
2D/	.	8r	8a/L	4f#X/
.	.	8dd\L	8d/J	.
.	.	8dd\	8b-X/L	4g/
.	.	16ccny\L	16a/L	.
!	!	!LO:TX:t=P:problem:♭ above	!	!
.	.	16b-X\JJ	16g/JJ	.
2.D/	.	8a/L	4f#X/	8r
.	.	8d/J	.	8dd\L
!	!	!	!LO:TX:t=P:problem:kreska pseudotaktowa	!
.	.	8b-X/L	4g/	8dd\
.	.	16a/L	.	16cc\L
!	!	!LO:TX:t=P:problem:kreska pseudotaktowa	!	!LO:TX:t=P:problem:kreska pseudotaktowa
!	!	!	!	!LO:TX:t=P:problem:♭ above
.	.	16g/JJ	.	16b-X\JJ
=27-	=27-	=27-	=27-	=27-
.	.	4f#X/	4r	4a/
4GG/	.	2g/	4dd\	4b-X/
2D/	.	.	4.dd\	2a/
.	.	4f#X/	.	.
.	.	.	8cc\	.
=28-	=28-	=28-	=28-	=28-
!LO:TX:t=P:problem:kreska pseudotaktowa	!	!	!	!
0GG	.	1g	4bny/	2g/
.	.	.	4gg\	.
.	.	.	4dd\	4r
!	!	!	!LO:TX:t=P:problem:kreska pseudotaktowa	!
!	!	!	!LO:TX:t=P:problem:♭ above	!
.	.	.	4ee-X\	4gg\
!	!	!LO:LB:g=original	!	!
=29-	=29-	=29-	=29-	=29-
.	.	4r	4b/	4dd\
!	!	!	!	!LO:TX:t=P:problem:♭ above
.	.	4gg\	4cc\	4ee-X\
.	.	4dd\	8r	4bny/
.	.	.	8gg\L	.
!	!	!LO:TX:t=P:problem:kreska pseudotaktowa	!	!
!	!	!LO:TX:t=P:problem:♭ above	!	!LO:TX:t=P:problem:kreska pseudotaktowa
.	.	4ee-X\	8gg\	4cc\
.	.	.	16ff\L	.
!	!	!	!LO:TX:t=P:problem:♭ above	!
.	.	.	16ee-X\JJ	.
=30-	=30-	=30-	=30-	=30-
!	!	!	!LO:TX:t=P:problem:mixed beam	!
2G\	.	4bny/	8dd\L	8r
*	*	*	*custos:d	*
.	.	.	8g/J	8gg\L
*	*	*	*custos:ee	*
!	!	!	!LO:LB:g=original	!
.	.	4cc\	8ee-X\L	8gg\
.	.	.	16dd\L	16ff\L
!	!	!	!	!LO:TX:t=P:problem:♭ above
.	.	.	16cc\JJ	16ee-X\JJ
2.G\	.	8r	4b/	8dd\L
.	.	8gg\L	.	8g\J
!	!	!	!LO:TX:t=P:problem:kreska pseudotaktowa	!
.	.	8gg\	4cc\	8ee-X\L
.	.	16ff\L	.	16dd\L
!	!	!LO:TX:t=P:problem:kreska pseudotaktowa	!	!
!	!	!LO:TX:t=P:problem:♭ above	!	!LO:TX:t=P:problem:kreska pseudotaktowa
.	.	16ee-X\JJ	.	16cc\JJ
=31-	=31-	=31-	=31-	=31-
.	.	4dd\	4r	4b/
!	!	!LO:TX:t=P:problem:♭ above	!	!
4C/	.	4ee-X\	4g/	2cc\
!LO:TX:t=P:problem:kreska pseudotaktowa	!	!	!	!
2G\	.	2dd\	4.g/	.
.	.	.	.	4b/
.	.	.	8fny/	.
=32-	=32-	=32-	=32-	=32-
4.c\	.	1cc	2e/	2cc\
8B\	.	.	.	.
2A\	.	.	2r	4r
.	.	.	.	4aa\
*	*	*	*	*custos:ee
!	!	!	!	!LO:LB:g=original
=33-	=33-	=33-	=33-	=33-
!LO:TX:t=P:problem:kreska pseudotaktowa	!	!	!	!
0A	.	4r	2r	4eeny\
.	.	4aa\	.	4ff\
.	.	4eeny\	4r	4cc#X\
!	!	!LO:TX:t=P:problem:kreska pseudotaktowa	!	!LO:TX:t=P:problem:kreska pseudotaktowa
.	.	4ff\	4aa\	4dd\
=34-	=34-	=34-	=34-	=34-
.	.	4cc#X\	4eeny\	8r
.	.	.	.	8aa\L
.	.	4dd\	4ff\	8aa\
.	.	.	.	16gg\L
.	.	.	.	16ff\JJ
.	.	8r	4cc#X\	8ee\L
.	.	8aa\L	.	8a\J
.	.	8aa\	4dd\	8ff\L
.	.	16gg\L	.	16ee\L
!	!	!	!	!LO:TX:t=P:problem:kreska pseudotaktowa
.	.	16ff\JJ	.	16dd\JJ
=35-	=35-	=35-	=35-	=35-
!	!	!LO:TX:t=P:problem:mixed beam	!	!
2A\	.	8ee\L	8r	4cc#X\
.	.	8a/J	8aa\L	.
.	.	8ff\L	8aa\	4dd\
.	.	16ee\L	16gg\L	.
.	.	16dd\JJ	16ff\JJ	.
!	!	!LO:LB:g=original	!LO:TX:t=P:problem:mixed beam	!
2.A\	.	4cc#X\	8ee\L	8r
.	.	.	8a/J	8aa\L
!	!	!LO:TX:t=P:problem:kreska pseudotaktowa	!	!
.	.	4dd\	8ff\L	8aa\
.	.	.	16ee\L	16gg\L
!	!	!	!LO:TX:t=P:problem:kreska pseudotaktowa	!
.	.	.	16dd\JJ	16ff\JJ
=36-	=36-	=36-	=36-	=36-
.	.	4r	4cc#X\	4ee\
4D/	.	4a/	2dd\	4ff\
2A\	.	4.a/	.	2ee\
.	.	.	4cc#X\	.
.	.	8g/	.	.
*	*	*	*custos:dd	*
!	!	!	!LO:LB:g=original	!
=37-	=37-	=37-	=37-	=37-
*M3/2	*	*M3/2	*M3/2	*M3/2
*met(3)	*	*met(3)	*met(3)	*met(3)
1D	.	1f#X	1dd	2.dd\
.	.	.	.	4ccny\
2G\	.	2r	2r	4b/
.	.	.	.	4cc\
=38-	=38-	=38-	=38-	=38-
!	!	!	!LO:TX:b:t=1:mod=	!
2GG/	.	2d/	1.r	2dd\
2C/	.	2e/	.	2cc\
!LO:TX:t=P:problem:kreska pseudotaktowa	!	!	!	!
2D/	.	2f#X/	.	2a/
*custos:GG	*	*	*	*custos:b
!LO:LB:g=original	!	!	!	!LO:LB:g=original
=39-	=39-	=39-	=39-	=39-
1GG	.	1g	2.gg\	1b
.	.	.	4ff\	.
2C/	.	2r	4ee\	2r
!	!	!	!LO:TX:t=P:problem:kreska pseudotaktowa	!
.	.	.	4ff\	.
=40-	=40-	=40-	=40-	=40-
2C/	.	1.r	2gg\	2g/
2F\	.	.	2ff\	2a/
!LO:TX:t=P:problem:kreska pseudotaktowa	!	!	!	!
2G\	.	.	2dd\	2b/
=41-	=41-	=41-	=41-	=41-
1C	.	2.ccny\	1ee	1cc
.	.	4b-X/	.	.
2F\	.	4a/	2r	2r
.	.	4b-/	.	.
=42-	=42-	=42-	=42-	=42-
2F\	.	2cc\	2a/	1.r
2G\	-	2b-X/	2dd\	.
!LO:TX:t=P:problem:kreska pseudotaktowa	!	!	!	!
2A\	.	2a/	2cc#X\	.
=43-	=43-	=43-	=43-	=43-
1D	.	1f#X	1dd	2.aa\
.	.	.	.	4gg\
!	!	!	!	!LO:SIC:v:o=4ff\
2D/	.	2r	2r	4ff#
.	.	.	.	4gg\
*	*	*custos:a	*	*
!	!	!LO:LB:g=original	!	!
=44-	=44-	=44-	=44-	=44-
!	!	!	!LO:TX:b:t=1:mod=	!
2D/	.	2a/	1.r	2aa\
2G\	.	2bny/	.	2gg\
2A\	.	2cc#X\	.	2ee\
=45-	=45-	=45-	=45-	=45-
1D	.	1dd	2.dd\	1ff#X
.	.	.	4ccny\	.
2G\	.	2r	4b/	2r
.	.	.	4cc\	.
=46-	=46-	=46-	=46-	=46-
2GG/	.	2d/	2dd\	1.r
2C/	.	2e/	2cc\	.
!LO:TX:t=P:problem:kreska pseudotaktowa	!	!LO:TX:b:t=P:problem:# below	!	!
2D/	.	2f#X/	2a/	.
=47-	=47-	=47-	=47-	=47-
1GG	.	1g	1b	2.dd\
.	.	.	.	4cc\
2GG/	.	2r	2r	4b/
.	.	.	.	4cc\
*	*	*	*custos:d	*
!	!	!	!LO:LB:g=original	!
=48-	=48-	=48-	=48-	=48-
2GG/	.	1.r	2d/	2dd\
2C/	.	.	2e/	2cc\
!LO:TX:t=P:problem:kreska pseudotaktowa	!	!	!	!
2D/	.	.	2f#X/	2a/
*custos:G	*	*	*	*
!LO:LB:g=original	!	!	!	!
=49-	=49-	=49-	=49-	=49-
1G	.	2.g/	2g/	1b
.	.	.	4b/	.
!	!	!LO:SIC:v:o=4fny/	!	!
.	.	4f#	4a/	.
2G\	.	4g/	4b/	2r
.	.	4a/	4cc\	.
*	*	*	*	*custos:gg
!	!	!	!	!LO:LB:g=original
=50-	=50-	=50-	=50-	=50-
2GG/	.	2g/	2dd\	1.r
2C/	.	2ccny\	2ee\	.
!LO:TX:t=P:problem:kreska pseudotaktowa	!	!	!	!
2D/	.	2a/	2ff#X\	.
=51-	=51-	=51-	=51-	=51-
1GG	.	1b	1gg	2.gg\
.	.	.	.	4ffny\
2C/	.	2r	2r	4ee\
.	.	.	.	4ff\
=52-	=52-	=52-	=52-	=52-
2C/	.	1.r	2g/	2gg\
2F\	.	.	2a/	2ff\
!LO:TX:t=P:problem:kreska pseudotaktowa	!	!	!	!
2G\	.	.	2b/	2dd\
=53-	=53-	=53-	=53-	=53-
1C	.	2.cc\	1cc	1ee
.	.	4b/	.	.
4F\	.	4a/	2r	2r
4G\	.	4b/	.	.
=54-	=54-	=54-	=54-	=54-
!	!	!	!LO:TX:b:t=2:mod=	!
!	!	!	!LO:N:vis=0	!
1A	.	1cc#X	0.r	2.aa\
.	.	.	.	4gg\
!LO:TX:t=P:problem:kreska pseudotaktowa	!	!	!	!
2D/	.	2dd\	.	4ff\
.	.	.	.	4gg\
*	*	*custos:a	*	*
!	!	!LO:LB:g=original	!	!
=55-	=55-	=55-	=55-	=55-
2F\	.	2a/	.	2aa\
2G\	.	2b/	.	2gg\
!	!	!LO:TX:t=P:problem:# above	!	!
2A\	.	2cc#X\	.	2ee\
=56-	=56-	=56-	=56-	=56-
1D	.	1dd	2.dd\	1ff#X
.	.	.	4cc\	.
!LO:TX:t=P:problem:kreska pseudotaktowa	!	!	!	!
2G\	.	2r	4b/	2r
.	.	.	4cc\	.
=57-	=57-	=57-	=57-	=57-
2GG/	.	2d/	2dd\	1.r
2C/	.	2e/	2cc\	.
2D/	.	2f#X/	2a/	.
*	*	*	*custos:b	*
!	!	!	!LO:LB:g=original	!
=58-	=58-	=58-	=58-	=58-
1G	.	1g	2.b/	2.dd\
.	.	.	4a/	4cc\
2G\	.	2r	4g/	4b/
.	.	.	4a/	4cc\
=59-	=59-	=59-	=59-	=59-
2GG/	.	2gg\	2b/	2dd\
2C/	.	2gg\	2ee\	2cc\
2D/	.	2ff#X\	2dd\	2a/
*custos:GG	*	*	*	*custos:b
!LO:LB:g=original	!	!	!	!LO:LB:g=original
=60-	=60-	=60-	=60-	=60-
*M2/2	*	*M2/2	*M2/2	*M2/2
*met(C|)	*	*met(C|)	*met(C|)	*met(C|)
*met(c|)	*	*met(c|)	*met(c|)	*met(c|)
0GG	.	1gg	1dd	1b
=61-	=61-	=61-	=61-	=61-
.	.	1r	1r	4r
.	.	.	.	4dd\
.	.	.	.	4b/
.	.	.	.	4g/
=62-	=62-	=62-	=62-	=62-
!LO:TX:t=P:problem:kreska pseudotaktowa	!	!	!	!
0GG	.	2r	8r	2dd\
.	.	.	8dd\L	.
.	.	.	8b\	.
.	.	.	8g\J	.
!	!	!	!LO:TX:t=P:problem:kreska pseudotaktowa	!
.	.	8r	2dd\	2r
.	.	8dd\L	.	.
.	.	8b\	.	.
.	.	8g\J	.	.
=63-	=63-	=63-	=63-	=63-
.	.	2dd\	2r	8r
.	.	.	.	16dd\LL
!	!	!	!	!LO:SIC:o=16cc\JJ
.	.	.	.	16ccJ
!	!	!	!	!LO:SIC:o=8b/L
.	.	.	.	8b
.	.	.	.	8g/J
!	!	!LO:TX:t=P:problem:kreska pseudotaktowa	!	!LO:TX:t=P:problem:kreska pseudotaktowa
.	.	2r	8r	2gg\
.	.	.	16dd\LL	.
.	.	.	16cc\J	.
.	.	.	8b\	.
.	.	.	8g\J	.
=64-	=64-	=64-	=64-	=64-
0GG	.	8r	2gg\	2r
.	.	16dd\LL	.	.
.	.	16ccny\J	.	.
.	.	8b\	.	.
.	.	8g\J	.	.
!	!	!	!LO:TX:t=P:problem:kreska pseudotaktowa	!
.	.	4gg\	2r	16g/LL
.	.	.	.	16a/
.	.	.	.	16b/
.	.	.	.	16cc/JJ
!	!	!LO:TX:t=P:problem:kreska pseudotaktowa	!	!
.	.	4r	.	16dd\LL
.	.	.	.	16ee\
.	.	.	.	16ffny\
!	!	!	!	!LO:TX:t=P:problem:kreska pseudotaktowa
.	.	.	.	16dd\JJ
!	!	!LO:LB:g=original	!	!
=65-	=65-	=65-	=65-	=65-
.	.	2r	16g/LL	4gg\
.	.	.	16a/	.
.	.	.	16b/	.
.	.	.	16cc/JJ	.
.	.	.	16dd\LL	4r
.	.	.	16ee\	.
.	.	.	16ffny\	.
.	.	.	16dd\JJ	.
.	.	16g/LL	4gg\	2r
.	.	16a/	.	.
.	.	16b/	.	.
.	.	16cc/JJ	.	.
!	!	!	!LO:TX:t=P:problem:kreska pseudotaktowa	!
.	.	16dd\LL	4r	.
.	.	16ee\	.	.
.	.	16ffny\	.	.
!	!	!LO:TX:t=P:problem:kreska pseudotaktowa	!	!
.	.	16dd\JJ	.	.
*	*	*	*custos:b	*
!	!	!	!LO:LB:g=original	!
=66-	=66-	=66-	=66-	=66-
1GG	.	4gg\	4r	1r
.	.	4g/	4b/	.
.	.	4g/	4b/	.
.	.	8fny/L	4cc\	.
.	.	8e/J	.	.
=67-	=67-	=67-	=67-	=67-
00D/	.	4d/	2dd\	4r
.	.	4dd\	.	4ff\
.	.	4dd\	2r	4ff\
.	.	8cc\L	.	4gg\
.	.	8b\J	.	.
*	*	*	*	*custos:aa
!	!	!	!	!LO:LB:g=original
=68-	=68-	=68-	=68-	=68-
.	.	2a/	8r	1aa
.	.	.	8a/L	.
!	!	!	!LO:TX:t=P:problem:# above	!
.	.	.	8f#X/	.
.	.	.	8d/J	.
!	!	!	!LO:TX:t=P:problem:kreska pseudotaktowa	!
.	.	8r	2dd\	.
.	.	8a/L	.	.
!	!	!LO:TX:t=P:problem:# above	!	!
.	.	8f#X/	.	.
!	!	!LO:TX:t=P:problem:kreska pseudotaktowa	!	!
.	.	8d/J	.	.
=69-	=69-	=69-	=69-	=69-
.	.	2dd\	2r	8r
.	.	.	.	8a/L
!	!	!	!	!LO:TX:t=P:problem:# above
.	.	.	.	8f#X/
.	.	.	.	8d/J
!	!	!	!	!LO:TX:t=P:problem:kreska pseudotaktowa
.	.	2r	8r	2dd\
.	.	.	16a/LL	.
.	.	.	16g/J	.
!	!	!	!LO:TX:t=P:problem:# above	!
.	.	.	8f#X/	.
.	.	.	8d/J	.
=70-	=70-	=70-	=70-	=70-
.	.	8r	2dd\	2r
.	.	16a/LL	.	.
.	.	16g/J	.	.
!	!	!LO:TX:t=P:problem:# above	!	!
.	.	8f#X/	.	.
.	.	8d/J	.	.
!	!	!LO:TX:t=P:problem:kreska pseudotaktowa	!	!
.	.	2dd\	2r	8r
.	.	.	.	16a/LL
!	!	!	!	!LO:SIC:o=16g/JJ
.	.	.	.	16gJ
!	!	!	!	!LO:TX:t=P:problem:# above
!	!	!	!	!LO:SIC:o=8f#X/L
.	.	.	.	8f#
!	!	!	!	!LO:TX:t=P:problem:kreska pseudotaktowa
.	.	.	.	8d/J
=71-	=71-	=71-	=71-	=71-
!LO:TX:t=P:problem:kreska pseudotaktowa	!	!	!	!
1D	.	2r	16d/LL	2dd\
.	.	.	16e/	.
!	!	!	!LO:TX:t=P:problem:# above	!
.	.	.	16f#X/	.
.	.	.	16g/JJ	.
.	.	.	16a\LL	.
.	.	.	16b\	.
.	.	.	16cc\	.
.	.	.	16a\JJ	.
*	*	*custos:d	*	*
!	!	!LO:LB:g=original	!	!
.	.	16d/LL	4dd\	2r
.	.	16e/	.	.
!	!	!LO:TX:t=P:problem:# above	!	!
.	.	16f#X/	.	.
.	.	16g/JJ	.	.
!	!	!	!LO:TX:t=P:problem:kreska pseudotaktowa	!
.	.	16a/LL	4r	.
.	.	16b/	.	.
.	.	16cc/	.	.
!	!	!LO:TX:t=P:problem:kreska pseudotaktowa	!	!
.	.	16a/JJ	.	.
=72-	=72-	=72-	=72-	=72-
2D/	.	4dd\	2r	16d/LL
.	.	.	.	16e/
!	!	!	!	!LO:TX:t=P:problem:# above
.	.	.	.	16f#X/
.	.	.	.	16g/JJ
.	.	4r	.	16a/LL
.	.	.	.	16b/
.	.	.	.	16cc/
.	.	.	.	16a/JJ
2.D/	.	8r	8r	2dd\
!	!	!	!LO:TX:t=P:problem:# above	!
.	.	8d/L	8f#X/L	.
.	.	8d/	8f#/	.
!	!	!LO:TX:t=P:problem:kreska pseudotaktowa	!LO:TX:t=P:problem:kreska pseudotaktowa	!
.	.	8e/J	8g/J	.
=73-	=73-	=73-	=73-	=73-
.	.	4f#X/	4a/	1r
4GG/	.	2g/	4b/	.
!LO:TX:t=P:problem:kreska pseudotaktowa	!	!	!	!
2D/	.	.	2a/	.
.	.	4f#X/	.	.
*	*	*	*custos:b	*
!	!	!	!LO:LB:g=original	!
=74-	=74-	=74-	=74-	=74-
1GG	.	1g	1b	4r
.	.	.	.	4dd\
.	.	.	.	4dd\
.	.	.	.	4dd\
=75-	=75-	=75-	=75-	=75-
2G\	.	0r	4r	4b/
.	.	.	4g/	4g/
4G\	.	.	4g/	[2gg\
!LO:TX:t=P:problem:kreska pseudotaktowa	!	!	!	!
4G\	.	.	4g/	.
=76-	=76-	=76-	=76-	=76-
0C	.	.	4e/	8gg\L]
.	.	.	.	8ff\
.	.	.	4c/	8ee\
.	.	.	.	8dd\J
.	.	.	[2cc\	[2ee\
*	*	*	*	*custos:ee
!	!	!	!	!LO:LB:g=original
=77-	=77-	=77-	=77-	=77-
!	!	!	!	!LO:TX:t=P:problem:brak zakończenia ligatury
.	.	1r	8cc/L]	8ee\L]
.	.	.	8b/	8dd\
.	.	.	8a/	8cc\
.	.	.	8g/J	8b\J
.	.	.	4.a/	[2cc\
.	.	.	8g/	.
=78-	=78-	=78-	=78-	=78-
1D	.	4r	4f#X/	8cc\L]
.	.	.	.	8dd\
.	.	4dd\	2g/	8b\
.	.	.	.	8cc\J
.	.	4dd\	.	2a/
.	.	4dd\	4f#X/	.
=79-	=79-	=79-	=79-	=79-
!LO:TX:t=P:problem:kreska pseudotaktowa	!	!	!	!
1GG	.	4b/	2g/	4r
.	.	4g/	.	4g/
!	!	!LO:TX:t=P:problem:kreska pseudotaktowa	!	!
.	.	[2gg\	2r	4g/
.	.	.	.	4g/
*custos:C	*	*	*	*
!LO:LB:g=original	!	!	!	!
=80-	=80-	=80-	=80-	=80-
0C	.	8gg\L]	4r	4e/
.	.	8ff\	.	.
.	.	8ee\	4gg\	4c/
.	.	8dd\J	.	.
.	.	[2ee\	4gg\	[2cc\
.	.	.	4gg\	.
*	*	*custos:ee	*	*
!	!	!LO:LB:g=original	!	!
=81-	=81-	=81-	=81-	=81-
.	.	8ee\L]	[2ee\	8cc/L]
.	.	8dd\	.	8b/
.	.	8cc\	.	8a/
.	.	8b\J	.	8g/J
.	.	[2cc\	8ee\L]	4.a/
.	.	.	8dd\	.
.	.	.	8cc\	.
!	!	!	!LO:TX:t=P:problem:kreska pseudotaktowa	!
.	.	.	8b\J	8g/
*	*	*	*custos:a	*
!	!	!	!LO:LB:g=original	!
=82-	=82-	=82-	=82-	=82-
1D	.	8cc\L]	4a/	4f#X/
.	.	8dd\	.	.
.	.	8b\	4dd\	2g/
.	.	8cc\J	.	.
.	.	2a/	4dd\	.
!	!	!	!	!LO:TX:t=P:problem:# above
.	.	.	4dd\	4f#X/
=83-	=83-	=83-	=83-	=83-
!LO:TX:t=P:problem:kreska pseudotaktowa	!	!	!	!
1GG	.	4r	4b/	1g
.	.	4g/	4g/	.
!	!	!	!LO:TX:t=P:problem:kreska pseudotaktowa	!
.	.	4g/	[2gg\	.
.	.	4g/	.	.
=84-	=84-	=84-	=84-	=84-
0C	.	4e/	8gg\L]	4r
.	.	.	8ff\	.
.	.	4c/	8ee\	4gg\
.	.	.	8dd\J	.
.	.	[2cc\	[2ee\	4gg\
.	.	.	.	4gg\
*	*	*	*	*custos:ee
!	!	!	!	!LO:LB:g=original
=85-	=85-	=85-	=85-	=85-
.	.	8cc/L]	8ee\L]	[2ee\
.	.	8b/	8dd\	.
.	.	8a/	8cc\	.
.	.	8g/J	8b\J	.
.	.	4.a/	[2cc\	8ee\L]
.	.	.	.	8dd\
.	.	.	.	8cc\
.	.	8g/	.	8b\J
=86-	=86-	=86-	=86-	=86-
1D	.	4f#X/	8cc\L]	4a/
.	.	.	8dd\	.
.	.	2g/	8b\	4dd\
.	.	.	8cc\J	.
.	.	.	2a/	4dd\
.	.	4f#X/	.	4dd\
=87-	=87-	=87-	=87-	=87-
2GG/	.	2g/	8r	2b/
.	.	.	8g/L	.
.	.	.	8g/	.
.	.	.	8g/J	.
!LO:TX:t=P:problem:kreska pseudotaktowa	!	!	!	!LO:TX:t=P:problem:kreska pseudotaktowa
2C/	.	8r	2e/	2r
.	.	8gg\L	.	.
.	.	8gg\	.	.
!	!	!LO:TX:t=P:problem:kreska pseudotaktowa	!	!
.	.	8gg\J	.	.
*	*	*custos:ee	*	*
!	!	!LO:LB:g=original	!	!
=88-	=88-	=88-	=88-	=88-
0C	.	2ee\	2r	8r
.	.	.	.	8gg\L
.	.	.	.	8gg\
.	.	.	.	8gg\J
*	*	*	*custos:gg	*
!	!	!	!LO:LB:g=original	!
.	.	8r	8r	2ee\
.	.	8ee\L	8gg\L	.
.	.	8ee\	8gg\	.
!	!	!LO:TX:t=P:problem:kreska pseudotaktowa	!LO:TX:t=P:problem:kreska pseudotaktowa	!
.	.	8ee\J	8gg\J	.
=89-	=89-	=89-	=89-	=89-
.	.	8cc\L	8ee\L	2r
.	.	8.ee\	8.gg\	.
.	.	16dd\L	16ff\L	.
.	.	16cc\	16ee\	.
.	.	16b\JJ	16dd\JJ	.
.	.	4cc\	8ee\L	8r
.	.	.	8.ee\	8.gg\L
!	!	!LO:TX:t=P:problem:kreska pseudotaktowa	!	!
.	.	4r	.	.
.	.	.	16dd\L	16ff\L
.	.	.	16cc\	16ee\
!	!	!	!LO:TX:t=P:problem:kreska pseudotaktowa	!LO:TX:t=P:problem:kreska pseudotaktowa
.	.	.	16b\JJ	16dd\JJ
=90-	=90-	=90-	=90-	=90-
00C/	.	8r	2cc\	8ee\L
.	.	8.gg\L	.	8.ee\
.	.	16ff\L	.	16dd\L
.	.	16ee\	.	16cc\
.	.	16dd\JJ	.	16b\JJ
.	.	8ee\L	8r	4cc\
.	.	8.ee\	8.gg\L	.
!	!	!	!	!LO:TX:t=P:problem:kreska pseudotaktowa
.	.	.	.	4r
.	.	16dd\L	16ff\L	.
.	.	16cc\	16ee\	.
.	.	16b\JJ	16dd\JJ	.
*	*	*	*	*custos:gg
!	!	!	!	!LO:LB:g=original
=91-	=91-	=91-	=91-	=91-
.	.	8cc\L	2ee\	2r
.	.	8.gg\	.	.
.	.	16ff\L	.	.
.	.	16ee\	.	.
.	.	16dd\JJ	.	.
.	.	2cc\	2.ee\	2.gg\
=92-	=92-	=92-	=92-	=92-
.	.	2r	.	.
.	.	.	4dd\	4ff\
.	.	2.gg\	4cc\	4ee\
.	.	.	4b/	4dd\
=93-	=93-	=93-	=93-	=93-
.	.	.	1.cc	4ee\
.	.	4ff\	.	4dd\
.	.	1ee\	.	4.cc\
.	.	.	.	8g/
=94-	=94-	=94-	=94-	=94-
!LO:SIC:o=[1GG;;l	!	!	!	!
[1GG	.	.	.	1g
!	!	!LO:SIC:v:o=2ee\	!	!
.	.	2dd	4b/	.
.	.	.	4a/	.
=95-	=95-	=95-	=95-	=95-
!LO:SIC:o=1GG]	!	!LO:SIC:o=1dd;;l	!LO:SIC:o=1b;;l	!LO:SIC:o=1g;;l
1GG];l	.	1dd;l	1b;l	1g;l
==	==	==	==	==
*-	*-	*-	*-	*-
!!!system-decoration: [(g1)]s4
!!!RDF**kern: > = above
!!!RDF**kern: < = below
!!!RDF**kern: i = editorial accidental
!!!RDF**kern: l = terminal long
!!!filter-modern: sic -sq | shed -e "s/TX(.*):t=P:/tx$1:t=P:/LG" | shed -e "s/^custos:/Xcustos:/I" | shed -k -e "s/-X/-/g" | shed -k -e "s/#X/#/g" | shed -k -e "s/LO:N:vis/LO:n:vis:/L" | shed -e "s/:rj/:RJ/L" | shed -e "s/LO:DY:(a|b|rj)/LO:dy:$1/L" | shed -e "s/-//B" | modori -m | tie -s | autostem -r
!!!ENC: Filip Voros
!!!END: 2022-11-04
!!!EED: Katarzyna Serwa
!!!EEV: 2022-11-17
!!!ENC-modern: Andrzej Borzym
!!!END-modern: 2022-11-29
